storage/app/icons/phosphoricons/fill/number-four-fill.svg

<svg xmlns="http://www.w3.org/2000/svg" fill="currentColor" viewBox="0 0 256 256"><path d="M104.65 144 144 94.81V144ZM216 40v176a16 16 0 0 1-16 16H56a16 16 0 0 1-16-16V40a16 16 0 0 1 16-16h144a16 16 0 0 1 16 16m-32 112a8 8 0 0 0-8-8h-16V72a8 8 0 0 0-14.25-5l-64 80A8 8 0 0 0 88 160h56v24a8 8 0 0 0 16 0v-24h16a8 8 0 0 0 8-8"/></svg>

<svg xmlns="http://www.w3.org/2000/svg" viewBox="0 0 256 256" fill="currentColor"><path d="M104.65,144,144,94.81V144ZM216,40V216a16,16,0,0,1-16,16H56a16,16,0,0,1-16-16V40A16,16,0,0,1,56,24H200A16,16,0,0,1,216,40ZM184,152a8,8,0,0,0-8-8H160V72a8,8,0,0,0-14.25-5l-64,80A8,8,0,0,0,88,160h56v24a8,8,0,0,0,16,0V160h16A8,8,0,0,0,184,152Z"/></svg>
